X:885
T: Tee-Ree Reel
T: R\'il an T\'i-R\'i
T: O'Dowd's Favorite [version]
S: B.Breathnach:"Ceol Rince na hEireann" IV/178
Z: B.Black
L: 1/8
M: 4/4
R: reel
K: Ador
EAAB cBce|DGGB DGGB|aged cdef|(3gfg bg a2 gf|
EAAB cBce|DGBd gdBG|cBAG Eage|1 dBGB A3 z :|2 dBGB A3 ||
e|a2 ea a2 ge|dGBG Bdde|a2 ea a2 ba|gedB BAAe|
a2 ea a2 ge|dGBG Bdde|EAAB cBce|1 dBGB BAA :|2 dBGB BA A2 ||
